src/icons/main-notifications.svg

<?xml version="1.0" encoding="UTF-8"?>
<svg width="11px" height="14px" viewBox="0 0 11 14" version="1.1" xmlns="http://www.w3.org/2000/svg" xmlns:xlink="http://www.w3.org/1999/xlink">
    <!-- Generator: Sketch 59 (86127) - https://sketch.com -->
    <title>HDL/Icon/Standard/notifications</title>
    <desc>Created with Sketch.</desc>
    <g id="Colors" stroke="none" stroke-width="1" fill="none" fill-rule="evenodd">
        <g id="Main-Icons" transform="translate(-120.000000, -265.000000)" fill="#4D5969">
            <g id="Notifications" transform="translate(101.000000, 247.000000)">
                <g id="HDL/Icon/Standard/notifications" transform="translate(19.000000, 18.000000)">
                    <path d="M6.875,12.6 C6.875,13.37 6.25625,14 5.5,14 C4.74375,14 4.125,13.37 4.125,12.6 L4.125,12.6 Z M5.5,0 C6.25625,0 6.875,0.63 6.875,1.4 L6.875,1.4 L6.875,1.659 C8.476875,2.233 9.625,3.773 9.625,5.6 L9.625,5.6 L9.625,9.8 C9.625,10.185 9.934375,10.5 10.3125,10.5 C10.690625,10.5 11,10.815 11,11.2 C11,11.585 10.690625,11.9 10.3125,11.9 L10.3125,11.9 L0.6875,11.9 C0.309375,11.9 0,11.585 0,11.2 C0,10.815 0.309375,10.5 0.6875,10.5 C1.065625,10.5 1.375,10.185 1.375,9.8 L1.375,9.8 L1.375,5.6 C1.375,3.773 2.523125,2.233 4.125,1.659 L4.125,1.659 L4.125,1.4 C4.125,0.63 4.74375,0 5.5,0 Z" id="Combined-Shape"></path>
                </g>
            </g>
        </g>
    </g>
</svg>

<?xml version="1.0" encoding="utf-8"?>
<!-- Generator: Adobe Illustrator 20.1.0, SVG Export Plug-In . SVG Version: 6.00 Build 0)  -->
<svg version="1.1" id="Layer_1" xmlns="http://www.w3.org/2000/svg" xmlns:xlink="http://www.w3.org/1999/xlink" x="0px" y="0px"
	 viewBox="0 0 11 14" style="enable-background:new 0 0 11 14;" xml:space="preserve">
<style type="text/css">
	.st0{fill:#4D5969;}
</style>
<title>HDL/Icon/Standard/notifications</title>
<desc>Created with Sketch.</desc>
<g id="Colors">
	<g id="Main-Icons" transform="translate(-120.000000, -265.000000)">
		<g id="Notifications" transform="translate(101.000000, 247.000000)">
			<g id="HDL_x2F_Icon_x2F_Standard_x2F_notifications" transform="translate(19.000000, 18.000000)">
				<path id="Combined-Shape" class="st0" d="M6.9,12.6c0,0.8-0.6,1.4-1.4,1.4s-1.4-0.6-1.4-1.4l0,0H6.9z M5.5,0
					c0.8,0,1.4,0.6,1.4,1.4l0,0v0.3c1.6,0.6,2.8,2.1,2.8,3.9l0,0v4.2c0,0.4,0.3,0.7,0.7,0.7s0.7,0.3,0.7,0.7s-0.3,0.7-0.7,0.7l0,0
					H0.7c-0.4,0-0.7-0.3-0.7-0.7s0.3-0.7,0.7-0.7s0.7-0.3,0.7-0.7l0,0V5.6c0-1.8,1.1-3.4,2.8-3.9l0,0V1.4C4.1,0.6,4.7,0,5.5,0z"/>
			</g>
		</g>
	</g>
</g>
</svg>
